X: 96
T: Polonäs, sexdregasamlingen del 1 nr 96
B: Sexdregasamlingen del 1 nr 96
O: Sexdrega, Västergötland
R: Slängpolska
S: efter Johannes Bryngelsson
Z: 2008-05-31 av Nils L
M: 3/4
L: 1/16
K: Dm
F2E2 D2E2 F2G2 | A2^G2 A2=B2 c2A2 | d2^c2 d2e2 f2g2 | a4 A2G2 F2E2 |
FGFE D2E2 F2G2 | ABAG A4 A,4 | d2eg f2ed e2d^c | d4 D8 ::
a2ba a2ga b2a2 | g2ag g2fg a2g2 | f2gf f2ef g2f2 | efed ^c2e2 A4 |
a2ba a2ga b2a2 | g2ag g2fg a2g2 | f2e2 d2e2 f2a2 | gfe^c d4 D4 :|

